{
 "compressionlevel": -1,
 "height": 22,
 "infinite": false,
 "nextlayerid": 8,
 "nextobjectid": 1,
 "orientation": "orthogonal",
 "renderorder": "right-down",
 "tiledversion": "1.12.0",
 "tileheight": 16,
 "tilewidth": 16,
 "type": "map",
 "version": "1.10",
 "width": 34,
 "tilesets": [
  {
   "firstgid": 1025,
   "source": "interiors.tsx"
  },
  {
   "firstgid": 2449,
   "source": "casadaindia.tsx"
  }
 ],
 "layers": [
  {
   "data": [
    0,
    0,
    0,
    0,
    0,
    0,
    0,
    0,
    0,
    0,
    0,
    0,
    0,
    0,
    0,
    0,
    0,
    0,
    0,
    0,
    0,
    0,
    0,
    0,
    0,
    0,
    0,
    0,
    0,
    0,
    0,
    0,
    0,
    0,
    0,
    0,
    0,
    0,
    0,
    0,
    0,
    0,
    0,
    0,
    0,
    0,
    0,
    0,
    0,
    0,
    0,
    0,
    0,
    0,
    0,
    0,
    0,
    0,
    0,
    0,
    0,
    0,
    0,
    0,
    0,
    0,
    0,
    0,
    0,
    0,
    0,
    0,
    0,
    0,
    0,
    0,
    0,
    0,
    0,
    0,
    0,
    0,
    0,
    0,
    0,
    0,
    0,
    0,
    0,
    0,
    0,
    0,
    0,
    0,
    0,
    0,
    0,
    0,
    0,
    0,
    0,
    0,
    2465,
    2506,
    2507,
    2508,
    2505,
    2506,
    2507,
    2508,
    2505,
    2466,
    2465,
    2466,
    2465,
    2466,
    2465,
    2466,
    2465,
    2466,
    2465,
    2466,
    2465,
    2466,
    2465,
    2466,
    2465,
    2466,
    2465,
    2468,
    2467,
    2468,
    2467,
    2468,
    2467,
    2466,
    2449,
    2458,
    2459,
    2460,
    2457,
    2458,
    2459,
    2460,
    2457,
    2450,
    2449,
    2450,
    2449,
    2450,
    2449,
    2450,
    2449,
    2450,
    2449,
    2450,
    2449,
    2450,
    2449,
    2450,
    2449,
    2450,
    2449,
    2452,
    2451,
    2452,
    2451,
    2452,
    2451,
    2450,
    2465,
    2474,
    2475,
    2476,
    2473,
    2474,
    2475,
    2476,
    2473,
    2466,
    2465,
    2466,
    2465,
    2466,
    2465,
    2466,
    2465,
    2466,
    2465,
    2466,
    2465,
    2466,
    2465,
    2466,
    2465,
    2466,
    2465,
    2468,
    2467,
    2468,
    2467,
    2468,
    2467,
    2466,
    2449,
    2490,
    2491,
    2492,
    2489,
    2490,
    2491,
    2492,
    2489,
    2450,
    2449,
    2450,
    2449,
    2450,
    2449,
    2450,
    2449,
    2450,
    2449,
    2450,
    2449,
    2450,
    2449,
    2450,
    2449,
    2450,
    2449,
    2452,
    2451,
    2452,
    2451,
    2452,
    2451,
    2450,
    2465,
    2506,
    2507,
    2508,
    2505,
    2506,
    2507,
    2508,
    2505,
    2466,
    2465,
    2466,
    2465,
    2466,
    2465,
    2466,
    2465,
    2466,
    2465,
    2466,
    2465,
    2466,
    2465,
    2466,
    2465,
    2466,
    2465,
    2468,
    2467,
    2468,
    2467,
    2468,
    2467,
    2466,
    2449,
    2458,
    2459,
    2460,
    2457,
    2458,
    2459,
    2460,
    2457,
    2450,
    2449,
    2450,
    2449,
    2450,
    2449,
    2450,
    2449,
    2450,
    2449,
    2450,
    2449,
    2450,
    2449,
    2450,
    2449,
    2450,
    2449,
    2452,
    2451,
    2452,
    2451,
    2452,
    2451,
    2450,
    2465,
    2466,
    2465,
    2466,
    2465,
    2466,
    2465,
    2466,
    2465,
    2466,
    2465,
    2466,
    2465,
    2466,
    2465,
    2466,
    2465,
    2466,
    2465,
    2466,
    2465,
    2466,
    2465,
    2466,
    2465,
    2466,
    2465,
    2466,
    2465,
    2466,
    2465,
    2466,
    2465,
    2466,
    2449,
    2450,
    2449,
    2450,
    2449,
    2450,
    2449,
    2450,
    2449,
    2450,
    2449,
    2450,
    2449,
    2450,
    2449,
    2450,
    2449,
    2450,
    2449,
    2450,
    2449,
    2450,
    2449,
    2450,
    2449,
    2450,
    2449,
    2450,
    2449,
    2450,
    2449,
    2450,
    2449,
    2450,
    2465,
    2466,
    2465,
    2466,
    2465,
    2466,
    2465,
    2466,
    2465,
    2466,
    2465,
    2466,
    2465,
    2466,
    2465,
    2466,
    2465,
    2466,
    2465,
    2466,
    2465,
    2466,
    2465,
    2466,
    2465,
    2466,
    2465,
    2466,
    2465,
    2466,
    2465,
    2466,
    2465,
    2466,
    2449,
    2450,
    2449,
    2450,
    2449,
    2450,
    2449,
    2450,
    2449,
    2450,
    2449,
    2450,
    2449,
    2450,
    2449,
    2450,
    2449,
    2450,
    2449,
    2450,
    2449,
    2450,
    2453,
    2454,
    2453,
    2454,
    2453,
    2454,
    2453,
    2454,
    2453,
    2454,
    2453,
    2450,
    2465,
    2466,
    2465,
    2466,
    2465,
    2466,
    2465,
    2466,
    2465,
    2466,
    2465,
    2466,
    2465,
    2466,
    2465,
    2466,
    2465,
    2466,
    2465,
    2466,
    2465,
    2466,
    2469,
    2470,
    2469,
    2470,
    2469,
    2470,
    2469,
    2470,
    2469,
    2470,
    2469,
    2466,
    2449,
    2450,
    2449,
    2450,
    2449,
    2450,
    2449,
    2450,
    2449,
    2450,
    2449,
    2450,
    2449,
    2450,
    2449,
    2450,
    2449,
    2450,
    2449,
    2450,
    2449,
    2450,
    2453,
    2454,
    2453,
    2454,
    2453,
    2454,
    2453,
    2454,
    2453,
    2454,
    2453,
    2450,
    2465,
    2466,
    2465,
    2466,
    2465,
    2466,
    2465,
    2466,
    2465,
    2466,
    2465,
    2466,
    2465,
    2466,
    2465,
    2466,
    2465,
    2466,
    2465,
    2466,
    2465,
    2466,
    2469,
    2470,
    2469,
    2470,
    2469,
    2470,
    2469,
    2470,
    2469,
    2470,
    2469,
    2466,
    2449,
    2450,
    2449,
    2450,
    2449,
    2450,
    2449,
    2450,
    2449,
    2450,
    2449,
    2450,
    2449,
    2450,
    2449,
    2450,
    2449,
    2450,
    2449,
    2450,
    2449,
    2450,
    2453,
    2454,
    2453,
    2454,
    2453,
    2454,
    2453,
    2454,
    2453,
    2454,
    2453,
    2450,
    2465,
    2466,
    2465,
    2466,
    2465,
    2466,
    2465,
    2466,
    2465,
    2466,
    2465,
    2466,
    2465,
    2466,
    2465,
    2466,
    2465,
    2466,
    2465,
    2466,
    2465,
    2466,
    2469,
    2470,
    2469,
    2470,
    2469,
    2470,
    2469,
    2470,
    2469,
    2470,
    2469,
    2466,
    2449,
    2450,
    2449,
    2450,
    2449,
    2450,
    2449,
    2450,
    2449,
    2450,
    2449,
    2450,
    2449,
    2450,
    2449,
    2450,
    2449,
    2450,
    2449,
    2450,
    2449,
    2450,
    2453,
    2454,
    2453,
    2454,
    2453,
    2454,
    2453,
    2454,
    2453,
    2454,
    2453,
    2450,
    2465,
    2466,
    2465,
    2466,
    2465,
    2466,
    2465,
    2466,
    2465,
    2466,
    2465,
    2466,
    2465,
    2466,
    2465,
    2466,
    2465,
    2466,
    2465,
    2466,
    2465,
    2466,
    2469,
    2470,
    2469,
    2470,
    2469,
    2470,
    2469,
    2470,
    2469,
    2470,
    2469,
    2466,
    2449,
    2450,
    2449,
    2450,
    2449,
    2450,
    2449,
    2450,
    2449,
    2450,
    2449,
    2450,
    2449,
    2450,
    2449,
    2450,
    2449,
    2450,
    2449,
    2450,
    2449,
    2450,
    2453,
    2454,
    2453,
    2454,
    2453,
    2454,
    2453,
    2454,
    2453,
    2454,
    2453,
    2450,
    2465,
    2466,
    2465,
    2466,
    2465,
    2466,
    2465,
    2466,
    2465,
    2466,
    2465,
    2466,
    2465,
    2466,
    2465,
    2466,
    2465,
    2466,
    2465,
    2466,
    2465,
    2466,
    2465,
    2466,
    2465,
    2466,
    2465,
    2466,
    2465,
    2466,
    2465,
    2466,
    2465,
    2466
   ],
   "height": 22,
   "id": 1,
   "name": "floor",
   "opacity": 1,
   "type": "tilelayer",
   "visible": true,
   "width": 34,
   "x": 0,
   "y": 0
  },
  {
   "data": [
    2481,
    2481,
    2481,
    2481,
    2481,
    2481,
    2481,
    2481,
    2481,
    2481,
    2481,
    2481,
    2481,
    2481,
    2481,
    2481,
    2481,
    2481,
    2481,
    2481,
    2481,
    2481,
    2481,
    2481,
    2481,
    2481,
    2481,
    2481,
    2481,
    2481,
    2481,
    2481,
    2481,
    2481,
    2497,
    2497,
    2497,
    2497,
    2497,
    2497,
    2497,
    2497,
    2497,
    2497,
    2497,
    2497,
    2497,
    2497,
    2497,
    2497,
    2497,
    2497,
    2497,
    2497,
    2497,
    2497,
    2497,
    2497,
    2497,
    2497,
    2497,
    2497,
    2497,
    2497,
    2497,
    2497,
    2497,
    2497,
    2513,
    2513,
    2513,
    2513,
    2513,
    2513,
    2513,
    2513,
    2513,
    2513,
    2513,
    2513,
    2513,
    2513,
    2513,
    2513,
    2513,
    2513,
    2513,
    2513,
    2513,
    2513,
    2513,
    2513,
    2513,
    2513,
    2513,
    2513,
    2513,
    2513,
    2513,
    2513,
    2513,
    2513,
    2513,
    0,
    0,
    0,
    0,
    0,
    0,
    0,
    0,
    2482,
    0,
    0,
    0,
    0,
    0,
    0,
    0,
    0,
    0,
    0,
    0,
    0,
    0,
    0,
    0,
    0,
    2482,
    0,
    0,
    0,
    0,
    0,
    0,
    2513,
    2513,
    0,
    0,
    0,
    0,
    0,
    0,
    0,
    0,
    2498,
    0,
    0,
    0,
    0,
    0,
    0,
    0,
    0,
    0,
    0,
    0,
    0,
    0,
    0,
    0,
    0,
    2498,
    0,
    0,
    0,
    0,
    0,
    0,
    2513,
    2513,
    0,
    0,
    0,
    0,
    0,
    0,
    0,
    0,
    2498,
    0,
    0,
    0,
    0,
    0,
    0,
    0,
    0,
    0,
    0,
    0,
    0,
    0,
    0,
    0,
    0,
    2498,
    0,
    0,
    0,
    0,
    0,
    0,
    2513,
    2513,
    0,
    0,
    0,
    0,
    0,
    0,
    0,
    0,
    2498,
    0,
    0,
    0,
    0,
    0,
    0,
    0,
    0,
    0,
    0,
    0,
    0,
    0,
    0,
    0,
    0,
    2498,
    0,
    0,
    0,
    0,
    0,
    0,
    2513,
    2513,
    0,
    0,
    0,
    0,
    0,
    0,
    0,
    0,
    2498,
    0,
    0,
    0,
    0,
    0,
    0,
    0,
    0,
    0,
    0,
    0,
    0,
    0,
    0,
    0,
    0,
    2498,
    0,
    0,
    0,
    0,
    0,
    0,
    2513,
    2513,
    0,
    0,
    0,
    0,
    0,
    0,
    0,
    0,
    2498,
    0,
    0,
    0,
    0,
    0,
    0,
    0,
    0,
    0,
    0,
    0,
    0,
    0,
    0,
    0,
    0,
    2498,
    0,
    0,
    0,
    0,
    0,
    0,
    2513,
    2513,
    2481,
    2481,
    0,
    2481,
    2481,
    2481,
    2481,
    2481,
    2481,
    0,
    0,
    0,
    0,
    0,
    0,
    0,
    0,
    0,
    0,
    0,
    0,
    0,
    0,
    0,
    0,
    2481,
    2481,
    2481,
    0,
    2481,
    2481,
    2481,
    2513,
    2513,
    2497,
    2497,
    0,
    2497,
    2497,
    2497,
    2497,
    2497,
    2497,
    0,
    0,
    0,
    0,
    0,
    0,
    0,
    0,
    0,
    0,
    0,
    0,
    0,
    0,
    0,
    0,
    2497,
    2497,
    2497,
    0,
    2497,
    2497,
    2497,
    2513,
    2513,
    2513,
    2513,
    0,
    2513,
    2513,
    2513,
    2513,
    2513,
    2513,
    0,
    0,
    0,
    0,
    0,
    0,
    0,
    0,
    0,
    0,
    0,
    0,
    0,
    0,
    0,
    0,
    2513,
    2513,
    2513,
    0,
    2513,
    2513,
    2513,
    2513,
    2513,
    0,
    0,
    0,
    0,
    0,
    0,
    0,
    0,
    0,
    0,
    0,
    0,
    0,
    0,
    0,
    0,
    0,
    0,
    0,
    0,
    0,
    0,
    0,
    0,
    0,
    0,
    0,
    0,
    0,
    0,
    0,
    0,
    2513,
    2513,
    0,
    0,
    0,
    0,
    0,
    0,
    0,
    0,
    0,
    0,
    0,
    0,
    0,
    0,
    0,
    0,
    0,
    0,
    0,
    0,
    0,
    0,
    0,
    0,
    0,
    0,
    0,
    0,
    0,
    0,
    0,
    0,
    2513,
    2513,
    0,
    0,
    0,
    0,
    0,
    0,
    0,
    0,
    0,
    0,
    0,
    0,
    0,
    0,
    0,
    0,
    0,
    0,
    0,
    0,
    0,
    0,
    0,
    0,
    0,
    0,
    0,
    0,
    0,
    0,
    0,
    0,
    2513,
    2513,
    0,
    0,
    0,
    0,
    0,
    0,
    0,
    0,
    0,
    0,
    0,
    0,
    0,
    0,
    0,
    0,
    0,
    0,
    0,
    0,
    0,
    0,
    0,
    0,
    0,
    0,
    0,
    0,
    0,
    0,
    0,
    0,
    2513,
    2513,
    0,
    0,
    0,
    0,
    0,
    0,
    0,
    0,
    0,
    0,
    0,
    0,
    0,
    0,
    0,
    0,
    0,
    0,
    0,
    0,
    0,
    0,
    0,
    0,
    0,
    0,
    0,
    0,
    0,
    0,
    0,
    0,
    2513,
    2513,
    0,
    0,
    0,
    0,
    0,
    0,
    0,
    0,
    0,
    0,
    0,
    0,
    0,
    0,
    0,
    0,
    0,
    0,
    0,
    0,
    0,
    0,
    0,
    0,
    0,
    0,
    0,
    0,
    0,
    0,
    0,
    0,
    2513,
    2513,
    0,
    0,
    0,
    0,
    0,
    0,
    0,
    0,
    0,
    0,
    0,
    0,
    0,
    0,
    0,
    0,
    0,
    0,
    0,
    0,
    0,
    0,
    0,
    0,
    0,
    0,
    0,
    0,
    0,
    0,
    0,
    0,
    2513,
    2513,
    0,
    0,
    0,
    0,
    0,
    0,
    0,
    0,
    0,
    0,
    0,
    0,
    0,
    0,
    0,
    0,
    0,
    0,
    0,
    0,
    0,
    0,
    0,
    0,
    0,
    0,
    0,
    0,
    0,
    0,
    0,
    0,
    2513,
    2513,
    0,
    0,
    0,
    0,
    0,
    0,
    0,
    0,
    0,
    0,
    0,
    0,
    0,
    0,
    0,
    0,
    0,
    0,
    0,
    0,
    0,
    0,
    0,
    0,
    0,
    0,
    0,
    0,
    0,
    0,
    0,
    0,
    2513,
    2513,
    2513,
    2513,
    2513,
    2513,
    2513,
    2513,
    2513,
    2513,
    2513,
    2513,
    2513,
    2513,
    2513,
    2513,
    2513,
    2513,
    2513,
    2513,
    2513,
    2513,
    2513,
    2513,
    2513,
    2513,
    2513,
    2513,
    2513,
    2513,
    2513,
    2513,
    2513,
    2513,
    2513
   ],
   "height": 22,
   "id": 2,
   "name": "walls",
   "opacity": 1,
   "type": "tilelayer",
   "visible": true,
   "width": 34,
   "x": 0,
   "y": 0
  },
  {
   "data": [
    0,
    0,
    0,
    0,
    0,
    0,
    0,
    0,
    0,
    0,
    0,
    0,
    0,
    0,
    0,
    0,
    0,
    0,
    0,
    0,
    0,
    0,
    0,
    0,
    0,
    0,
    0,
    0,
    0,
    0,
    0,
    0,
    0,
    0,
    0,
    0,
    0,
    0,
    0,
    0,
    0,
    0,
    0,
    0,
    0,
    0,
    0,
    0,
    0,
    0,
    0,
    0,
    0,
    0,
    0,
    0,
    0,
    0,
    0,
    0,
    0,
    0,
    0,
    0,
    0,
    0,
    0,
    0,
    0,
    0,
    0,
    0,
    0,
    0,
    0,
    0,
    0,
    0,
    0,
    0,
    0,
    0,
    0,
    0,
    0,
    0,
    0,
    0,
    0,
    0,
    0,
    0,
    0,
    0,
    0,
    0,
    0,
    0,
    0,
    0,
    0,
    0,
    0,
    0,
    0,
    0,
    0,
    0,
    0,
    0,
    0,
    0,
    0,
    0,
    0,
    0,
    0,
    0,
    0,
    0,
    0,
    0,
    0,
    0,
    0,
    0,
    0,
    0,
    0,
    0,
    0,
    0,
    0,
    0,
    0,
    0,
    0,
    0,
    0,
    0,
    0,
    0,
    0,
    0,
    0,
    0,
    0,
    0,
    0,
    0,
    0,
    0,
    0,
    0,
    0,
    0,
    0,
    0,
    0,
    0,
    0,
    0,
    0,
    0,
    0,
    0,
    0,
    0,
    0,
    0,
    0,
    0,
    0,
    0,
    0,
    0,
    0,
    0,
    0,
    0,
    0,
    0,
    0,
    0,
    0,
    0,
    0,
    0,
    0,
    0,
    0,
    0,
    0,
    0,
    0,
    0,
    0,
    0,
    0,
    0,
    0,
    0,
    0,
    0,
    0,
    0,
    0,
    0,
    2691,
    0,
    0,
    0,
    0,
    0,
    0,
    0,
    0,
    0,
    0,
    0,
    0,
    0,
    0,
    0,
    0,
    0,
    0,
    0,
    0,
    0,
    0,
    0,
    0,
    0,
    0,
    0,
    0,
    0,
    0,
    0,
    0,
    0,
    0,
    0,
    0,
    0,
    2653,
    0,
    0,
    0,
    0,
    0,
    0,
    0,
    0,
    0,
    0,
    0,
    0,
    0,
    0,
    0,
    0,
    2625,
    0,
    0,
    0,
    0,
    0,
    0,
    0,
    0,
    0,
    0,
    0,
    0,
    0,
    0,
    0,
    0,
    0,
    0,
    0,
    0,
    0,
    0,
    0,
    0,
    0,
    0,
    0,
    0,
    0,
    0,
    0,
    0,
    0,
    0,
    0,
    0,
    0,
    0,
    0,
    0,
    0,
    0,
    0,
    0,
    0,
    0,
    0,
    0,
    0,
    0,
    0,
    0,
    0,
    0,
    0,
    0,
    0,
    0,
    0,
    0,
    0,
    0,
    0,
    0,
    0,
    0,
    0,
    0,
    0,
    0,
    0,
    0,
    0,
    0,
    0,
    0,
    0,
    0,
    0,
    0,
    0,
    0,
    0,
    0,
    0,
    0,
    0,
    0,
    0,
    0,
    0,
    0,
    0,
    0,
    0,
    0,
    0,
    0,
    0,
    0,
    0,
    0,
    0,
    0,
    0,
    0,
    0,
    0,
    0,
    0,
    0,
    0,
    0,
    0,
    0,
    0,
    0,
    0,
    0,
    0,
    0,
    0,
    0,
    0,
    0,
    0,
    0,
    0,
    0,
    0,
    0,
    0,
    0,
    0,
    0,
    0,
    0,
    0,
    0,
    0,
    0,
    0,
    0,
    0,
    0,
    0,
    0,
    0,
    0,
    0,
    0,
    0,
    0,
    0,
    0,
    0,
    0,
    0,
    0,
    0,
    0,
    0,
    0,
    0,
    0,
    0,
    0,
    0,
    0,
    0,
    0,
    0,
    0,
    0,
    0,
    0,
    0,
    0,
    0,
    2691,
    0,
    0,
    2691,
    0,
    0,
    2691,
    0,
    0,
    2691,
    0,
    0,
    2691,
    0,
    0,
    2691,
    0,
    0,
    2691,
    0,
    0,
    0,
    0,
    0,
    0,
    0,
    0,
    0,
    0,
    0,
    0,
    0,
    0,
    0,
    0,
    0,
    0,
    0,
    0,
    0,
    0,
    0,
    0,
    0,
    0,
    0,
    0,
    0,
    0,
    0,
    0,
    0,
    0,
    0,
    0,
    0,
    0,
    0,
    0,
    0,
    0,
    0,
    0,
    0,
    0,
    0,
    0,
    0,
    0,
    0,
    0,
    0,
    0,
    0,
    0,
    0,
    0,
    0,
    0,
    0,
    0,
    0,
    0,
    0,
    0,
    0,
    0,
    0,
    0,
    0,
    0,
    2691,
    2691,
    0,
    0,
    0,
    0,
    0,
    0,
    0,
    0,
    0,
    0,
    0,
    0,
    0,
    0,
    0,
    0,
    0,
    0,
    0,
    0,
    0,
    0,
    0,
    0,
    0,
    0,
    0,
    0,
    0,
    0,
    0,
    0,
    0,
    0,
    0,
    0,
    0,
    0,
    0,
    0,
    0,
    0,
    0,
    0,
    0,
    0,
    0,
    0,
    0,
    0,
    0,
    0,
    0,
    0,
    0,
    0,
    0,
    0,
    0,
    0,
    0,
    0,
    0,
    0,
    0,
    0,
    0,
    0,
    0,
    0,
    0,
    0,
    0,
    0,
    2625,
    0,
    0,
    2691,
    0,
    0,
    2691,
    0,
    0,
    2691,
    0,
    0,
    2691,
    0,
    0,
    2691,
    0,
    0,
    2691,
    0,
    0,
    2691,
    0,
    0,
    0,
    0,
    2691,
    2691,
    0,
    0,
    0,
    0,
    0,
    0,
    0,
    0,
    0,
    0,
    0,
    0,
    0,
    0,
    0,
    0,
    0,
    0,
    0,
    0,
    0,
    0,
    0,
    0,
    0,
    0,
    0,
    0,
    0,
    0,
    2653,
    0,
    0,
    0,
    0,
    0,
    0,
    0,
    0,
    0,
    0,
    0,
    0,
    0,
    0,
    0,
    0,
    0,
    0,
    0,
    0,
    0,
    0,
    0,
    0,
    0,
    0,
    0,
    0,
    0,
    0,
    0,
    0,
    2625,
    0,
    0,
    0,
    0,
    0,
    0,
    0,
    0,
    0,
    0,
    0,
    0,
    0,
    0,
    0,
    0,
    0,
    0,
    0,
    0,
    0,
    0,
    0,
    0,
    0,
    0,
    0,
    0,
    0,
    0,
    0,
    0,
    0,
    0,
    0,
    0,
    0,
    0,
    0,
    0,
    0,
    0,
    0,
    0,
    0,
    0
   ],
   "height": 22,
   "id": 3,
   "name": "furniture-below",
   "opacity": 1,
   "type": "tilelayer",
   "visible": true,
   "width": 34,
   "x": 0,
   "y": 0
  },
  {
   "data": [
    2483,
    2484,
    0,
    0,
    2532,
    2533,
    2534,
    0,
    0,
    0,
    0,
    2532,
    2533,
    2534,
    0,
    2529,
    2530,
    2531,
    0,
    0,
    2532,
    2533,
    2534,
    0,
    0,
    0,
    0,
    0,
    2532,
    2533,
    2534,
    0,
    2485,
    2486,
    2499,
    2500,
    0,
    0,
    2548,
    2549,
    2550,
    0,
    0,
    0,
    0,
    2548,
    2549,
    2550,
    0,
    2545,
    2546,
    2547,
    0,
    0,
    2548,
    2549,
    2550,
    0,
    0,
    0,
    0,
    0,
    2548,
    2549,
    2550,
    0,
    2501,
    2502,
    2515,
    2516,
    0,
    0,
    2564,
    2565,
    2566,
    0,
    0,
    0,
    0,
    2564,
    2565,
    2566,
    0,
    2561,
    2562,
    2563,
    0,
    0,
    2564,
    2565,
    2566,
    0,
    0,
    0,
    0,
    0,
    2564,
    2565,
    2566,
    0,
    2517,
    2518,
    0,
    2643,
    2644,
    0,
    2580,
    2581,
    2582,
    2654,
    2655,
    0,
    0,
    2580,
    2581,
    2582,
    0,
    2577,
    2578,
    2579,
    0,
    0,
    2580,
    2581,
    2606,
    2607,
    0,
    0,
    0,
    2600,
    2580,
    2581,
    2582,
    2596,
    0,
    0,
    0,
    2659,
    2660,
    0,
    0,
    0,
    0,
    2670,
    2671,
    0,
    2651,
    0,
    0,
    0,
    2649,
    0,
    0,
    0,
    0,
    0,
    0,
    0,
    2622,
    2623,
    0,
    0,
    0,
    2594,
    2595,
    0,
    2598,
    2599,
    2593,
    0,
    0,
    0,
    0,
    0,
    2689,
    2690,
    0,
    0,
    0,
    0,
    0,
    0,
    0,
    0,
    0,
    0,
    0,
    0,
    0,
    0,
    0,
    0,
    2641,
    2642,
    0,
    0,
    0,
    2610,
    2611,
    0,
    2614,
    2615,
    2626,
    0,
    0,
    1742,
    1743,
    0,
    0,
    0,
    0,
    0,
    0,
    0,
    0,
    2645,
    2646,
    2647,
    0,
    0,
    0,
    0,
    0,
    0,
    0,
    0,
    2657,
    2658,
    0,
    0,
    0,
    0,
    0,
    0,
    0,
    0,
    0,
    0,
    0,
    1758,
    1759,
    0,
    0,
    0,
    0,
    0,
    0,
    0,
    0,
    2661,
    2662,
    2663,
    0,
    0,
    0,
    0,
    0,
    1756,
    0,
    0,
    0,
    0,
    0,
    0,
    0,
    2601,
    2602,
    0,
    2604,
    2605,
    2603,
    0,
    0,
    0,
    0,
    0,
    0,
    0,
    2673,
    2674,
    0,
    0,
    2626,
    0,
    0,
    0,
    0,
    0,
    0,
    0,
    0,
    1772,
    0,
    0,
    0,
    0,
    0,
    0,
    0,
    2617,
    2618,
    0,
    2620,
    2621,
    2597,
    0,
    0,
    0,
    0,
    0,
    0,
    0,
    0,
    0,
    0,
    0,
    0,
    0,
    0,
    0,
    0,
    0,
    0,
    0,
    0,
    0,
    0,
    0,
    0,
    0,
    1756,
    0,
    0,
    0,
    0,
    0,
    0,
    0,
    0,
    0,
    0,
    0,
    0,
    0,
    0,
    0,
    0,
    0,
    0,
    0,
    0,
    0,
    0,
    0,
    0,
    0,
    0,
    0,
    0,
    0,
    0,
    0,
    0,
    0,
    1772,
    0,
    0,
    0,
    0,
    0,
    0,
    0,
    0,
    0,
    0,
    0,
    0,
    0,
    0,
    0,
    0,
    0,
    0,
    0,
    0,
    0,
    0,
    0,
    0,
    0,
    0,
    0,
    0,
    0,
    0,
    0,
    0,
    0,
    0,
    0,
    0,
    0,
    0,
    0,
    0,
    0,
    0,
    0,
    0,
    2689,
    2690,
    0,
    2689,
    2690,
    0,
    2689,
    2690,
    0,
    2689,
    2690,
    0,
    2689,
    2690,
    0,
    2689,
    2690,
    0,
    2689,
    2690,
    2649,
    0,
    0,
    0,
    0,
    0,
    0,
    0,
    0,
    2594,
    2595,
    0,
    0,
    0,
    0,
    0,
    0,
    0,
    0,
    0,
    0,
    0,
    0,
    0,
    0,
    0,
    0,
    0,
    0,
    0,
    0,
    0,
    0,
    0,
    0,
    0,
    0,
    0,
    0,
    0,
    0,
    2593,
    2593,
    2610,
    2611,
    2596,
    0,
    0,
    0,
    0,
    0,
    0,
    0,
    0,
    0,
    0,
    0,
    0,
    0,
    0,
    0,
    0,
    0,
    0,
    0,
    0,
    0,
    0,
    0,
    0,
    0,
    2692,
    2693,
    0,
    0,
    0,
    0,
    0,
    0,
    0,
    0,
    0,
    0,
    0,
    0,
    0,
    0,
    0,
    0,
    0,
    0,
    0,
    0,
    0,
    0,
    0,
    0,
    0,
    0,
    0,
    0,
    0,
    0,
    0,
    0,
    0,
    0,
    0,
    0,
    0,
    0,
    0,
    0,
    0,
    0,
    0,
    0,
    0,
    0,
    0,
    0,
    0,
    0,
    0,
    0,
    0,
    0,
    0,
    0,
    0,
    0,
    0,
    0,
    0,
    0,
    0,
    2652,
    0,
    0,
    0,
    0,
    0,
    0,
    0,
    0,
    0,
    0,
    0,
    0,
    0,
    2689,
    2690,
    0,
    2689,
    2690,
    0,
    2689,
    2690,
    0,
    2689,
    2690,
    0,
    2689,
    2690,
    0,
    2689,
    2690,
    0,
    2689,
    2690,
    0,
    0,
    0,
    2692,
    2693,
    0,
    0,
    0,
    0,
    0,
    0,
    0,
    0,
    0,
    0,
    0,
    0,
    0,
    0,
    0,
    0,
    0,
    0,
    0,
    0,
    0,
    0,
    0,
    0,
    0,
    0,
    0,
    0,
    0,
    0,
    0,
    0,
    0,
    0,
    0,
    0,
    0,
    0,
    0,
    0,
    0,
    0,
    0,
    0,
    0,
    0,
    0,
    0,
    0,
    0,
    0,
    0,
    0,
    0,
    0,
    0,
    0,
    0,
    0,
    0,
    0,
    0,
    0,
    0,
    0,
    0,
    0,
    0,
    0,
    0,
    0,
    1742,
    1743,
    0,
    0,
    0,
    0,
    0,
    0,
    0,
    0,
    0,
    0,
    0,
    0,
    0,
    0,
    0,
    0,
    0,
    0,
    0,
    0,
    0,
    0,
    0,
    0,
    0,
    0,
    0,
    0,
    0,
    0,
    0,
    0,
    1758,
    1759,
    0,
    0,
    0,
    0,
    0,
    0,
    0,
    0,
    0,
    0,
    0,
    0,
    0,
    0,
    0,
    0,
    0,
    0,
    0,
    0,
    0,
    0,
    0,
    0,
    0,
    0,
    0,
    0,
    0,
    0,
    0,
    0,
    0,
    0,
    0,
    0,
    0
   ],
   "height": 22,
   "id": 4,
   "name": "furniture-above",
   "opacity": 1,
   "type": "tilelayer",
   "visible": true,
   "width": 34,
   "x": 0,
   "y": 0
  },
  {
   "data": [
    1,
    1,
    1,
    1,
    1,
    1,
    1,
    1,
    1,
    1,
    1,
    1,
    1,
    1,
    1,
    1,
    1,
    1,
    1,
    1,
    1,
    1,
    1,
    1,
    1,
    1,
    1,
    1,
    1,
    1,
    1,
    1,
    1,
    1,
    1,
    1,
    1,
    1,
    1,
    1,
    1,
    1,
    1,
    1,
    1,
    1,
    1,
    1,
    1,
    1,
    1,
    1,
    1,
    1,
    1,
    1,
    1,
    1,
    1,
    1,
    1,
    1,
    1,
    1,
    1,
    1,
    1,
    1,
    1,
    1,
    1,
    1,
    1,
    1,
    1,
    1,
    1,
    1,
    1,
    1,
    1,
    1,
    1,
    1,
    1,
    1,
    1,
    1,
    1,
    1,
    1,
    1,
    1,
    1,
    1,
    1,
    1,
    1,
    1,
    1,
    1,
    1,
    1,
    1,
    1,
    0,
    1,
    1,
    1,
    1,
    1,
    1,
    0,
    1,
    1,
    1,
    0,
    1,
    0,
    1,
    0,
    0,
    1,
    1,
    1,
    1,
    0,
    0,
    1,
    1,
    1,
    1,
    1,
    1,
    0,
    1,
    1,
    1,
    1,
    0,
    0,
    0,
    0,
    1,
    1,
    1,
    1,
    0,
    0,
    0,
    1,
    0,
    0,
    0,
    0,
    0,
    0,
    0,
    1,
    1,
    0,
    0,
    1,
    1,
    1,
    0,
    1,
    1,
    1,
    1,
    1,
    0,
    0,
    0,
    1,
    1,
    0,
    0,
    0,
    1,
    0,
    0,
    0,
    0,
    0,
    0,
    0,
    0,
    0,
    0,
    0,
    0,
    1,
    1,
    0,
    0,
    1,
    1,
    1,
    0,
    1,
    1,
    1,
    1,
    1,
    1,
    1,
    0,
    0,
    0,
    0,
    0,
    0,
    1,
    0,
    1,
    1,
    1,
    0,
    0,
    0,
    0,
    0,
    0,
    0,
    0,
    1,
    1,
    0,
    0,
    1,
    0,
    0,
    0,
    0,
    0,
    0,
    1,
    1,
    1,
    1,
    0,
    0,
    0,
    0,
    0,
    1,
    1,
    0,
    1,
    1,
    1,
    0,
    0,
    0,
    0,
    0,
    1,
    0,
    0,
    0,
    0,
    0,
    1,
    1,
    1,
    1,
    0,
    1,
    1,
    1,
    1,
    1,
    0,
    0,
    0,
    0,
    0,
    1,
    1,
    0,
    1,
    1,
    0,
    0,
    0,
    0,
    0,
    0,
    0,
    0,
    1,
    0,
    0,
    0,
    0,
    0,
    0,
    1,
    1,
    1,
    0,
    1,
    1,
    1,
    1,
    1,
    1,
    1,
    0,
    1,
    1,
    1,
    1,
    1,
    1,
    0,
    0,
    0,
    0,
    0,
    0,
    0,
    0,
    0,
    0,
    0,
    0,
    0,
    0,
    1,
    0,
    1,
    1,
    1,
    0,
    1,
    1,
    1,
    1,
    1,
    1,
    1,
    0,
    1,
    1,
    1,
    1,
    1,
    1,
    0,
    0,
    0,
    0,
    0,
    0,
    0,
    0,
    0,
    0,
    0,
    0,
    0,
    0,
    1,
    0,
    1,
    1,
    1,
    0,
    1,
    1,
    1,
    1,
    1,
    1,
    1,
    0,
    1,
    1,
    1,
    1,
    1,
    1,
    0,
    0,
    0,
    0,
    0,
    0,
    0,
    0,
    0,
    0,
    0,
    0,
    0,
    0,
    0,
    0,
    1,
    1,
    1,
    0,
    1,
    1,
    1,
    1,
    1,
    1,
    1,
    0,
    1,
    1,
    0,
    1,
    1,
    0,
    1,
    1,
    0,
    1,
    1,
    0,
    1,
    1,
    0,
    1,
    1,
    1,
    0,
    0,
    0,
    0,
    0,
    0,
    0,
    0,
    1,
    1,
    0,
    1,
    1,
    0,
    0,
    0,
    0,
    0,
    0,
    0,
    0,
    0,
    0,
    0,
    0,
    0,
    0,
    0,
    0,
    0,
    0,
    0,
    0,
    0,
    0,
    0,
    0,
    0,
    0,
    0,
    1,
    1,
    1,
    1,
    1,
    1,
    1,
    0,
    0,
    0,
    0,
    0,
    0,
    0,
    0,
    0,
    0,
    0,
    0,
    0,
    0,
    0,
    0,
    0,
    0,
    0,
    0,
    0,
    0,
    0,
    1,
    1,
    0,
    0,
    0,
    0,
    0,
    0,
    0,
    1,
    1,
    0,
    0,
    0,
    0,
    0,
    0,
    0,
    0,
    0,
    0,
    0,
    0,
    0,
    0,
    0,
    0,
    0,
    0,
    0,
    0,
    0,
    0,
    0,
    0,
    0,
    0,
    0,
    0,
    0,
    0,
    0,
    0,
    1,
    1,
    0,
    0,
    0,
    0,
    0,
    0,
    0,
    0,
    0,
    0,
    0,
    0,
    0,
    0,
    0,
    0,
    0,
    0,
    0,
    0,
    1,
    0,
    0,
    0,
    0,
    0,
    0,
    0,
    0,
    0,
    0,
    0,
    1,
    1,
    1,
    1,
    0,
    1,
    1,
    0,
    1,
    1,
    0,
    1,
    1,
    0,
    1,
    1,
    0,
    1,
    1,
    0,
    1,
    1,
    0,
    0,
    0,
    1,
    1,
    0,
    0,
    0,
    0,
    0,
    0,
    1,
    1,
    1,
    0,
    0,
    0,
    0,
    0,
    0,
    0,
    0,
    0,
    0,
    0,
    0,
    0,
    0,
    0,
    0,
    0,
    0,
    0,
    0,
    0,
    0,
    0,
    0,
    0,
    0,
    0,
    0,
    0,
    0,
    0,
    0,
    1,
    1,
    0,
    0,
    0,
    0,
    0,
    0,
    0,
    0,
    0,
    0,
    0,
    0,
    0,
    0,
    0,
    0,
    0,
    0,
    0,
    0,
    0,
    1,
    0,
    0,
    0,
    0,
    0,
    0,
    1,
    1,
    0,
    0,
    1,
    1,
    0,
    0,
    0,
    0,
    0,
    0,
    0,
    0,
    0,
    0,
    0,
    0,
    0,
    0,
    0,
    0,
    0,
    0,
    0,
    0,
    1,
    0,
    0,
    0,
    0,
    0,
    0,
    0,
    1,
    1,
    0,
    0,
    1,
    1,
    1,
    1,
    1,
    1,
    1,
    1,
    1,
    1,
    1,
    1,
    1,
    1,
    1,
    1,
    1,
    1,
    1,
    1,
    1,
    1,
    1,
    1,
    1,
    1,
    1,
    1,
    1,
    1,
    1,
    1,
    1,
    1,
    1
   ],
   "height": 22,
   "id": 5,
   "name": "collision",
   "opacity": 1,
   "type": "tilelayer",
   "visible": true,
   "width": 34,
   "x": 0,
   "y": 0
  },
  {
   "draworder": "topdown",
   "id": 6,
   "name": "spawn-points",
   "objects": [
    {
     "id": 0,
     "name": "desk-feitor",
     "type": "",
     "x": 64,
     "y": 96,
     "width": 0,
     "height": 0,
     "rotation": 0,
     "visible": true,
     "point": true
    },
    {
     "id": 0,
     "name": "desk-1",
     "type": "",
     "x": 16,
     "y": 208,
     "width": 0,
     "height": 0,
     "rotation": 0,
     "visible": true,
     "point": true
    },
    {
     "id": 0,
     "name": "desk-2",
     "type": "",
     "x": 64,
     "y": 208,
     "width": 0,
     "height": 0,
     "rotation": 0,
     "visible": true,
     "point": true
    },
    {
     "id": 0,
     "name": "desk-3",
     "type": "",
     "x": 112,
     "y": 208,
     "width": 0,
     "height": 0,
     "rotation": 0,
     "visible": true,
     "point": true
    },
    {
     "id": 0,
     "name": "desk-4",
     "type": "",
     "x": 160,
     "y": 208,
     "width": 0,
     "height": 0,
     "rotation": 0,
     "visible": true,
     "point": true
    },
    {
     "id": 0,
     "name": "desk-5",
     "type": "",
     "x": 208,
     "y": 208,
     "width": 0,
     "height": 0,
     "rotation": 0,
     "visible": true,
     "point": true
    },
    {
     "id": 0,
     "name": "desk-6",
     "type": "",
     "x": 256,
     "y": 208,
     "width": 0,
     "height": 0,
     "rotation": 0,
     "visible": true,
     "point": true
    },
    {
     "id": 0,
     "name": "desk-7",
     "type": "",
     "x": 304,
     "y": 208,
     "width": 0,
     "height": 0,
     "rotation": 0,
     "visible": true,
     "point": true
    },
    {
     "id": 0,
     "name": "desk-8",
     "type": "",
     "x": 16,
     "y": 288,
     "width": 0,
     "height": 0,
     "rotation": 0,
     "visible": true,
     "point": true
    },
    {
     "id": 0,
     "name": "desk-9",
     "type": "",
     "x": 64,
     "y": 288,
     "width": 0,
     "height": 0,
     "rotation": 0,
     "visible": true,
     "point": true
    },
    {
     "id": 0,
     "name": "desk-10",
     "type": "",
     "x": 112,
     "y": 288,
     "width": 0,
     "height": 0,
     "rotation": 0,
     "visible": true,
     "point": true
    },
    {
     "id": 0,
     "name": "desk-11",
     "type": "",
     "x": 160,
     "y": 288,
     "width": 0,
     "height": 0,
     "rotation": 0,
     "visible": true,
     "point": true
    },
    {
     "id": 0,
     "name": "desk-12",
     "type": "",
     "x": 208,
     "y": 288,
     "width": 0,
     "height": 0,
     "rotation": 0,
     "visible": true,
     "point": true
    },
    {
     "id": 0,
     "name": "desk-13",
     "type": "",
     "x": 256,
     "y": 288,
     "width": 0,
     "height": 0,
     "rotation": 0,
     "visible": true,
     "point": true
    },
    {
     "id": 0,
     "name": "desk-14",
     "type": "",
     "x": 304,
     "y": 288,
     "width": 0,
     "height": 0,
     "rotation": 0,
     "visible": true,
     "point": true
    },
    {
     "id": 0,
     "name": "cafe-seat-1",
     "type": "",
     "x": 384,
     "y": 240,
     "width": 0,
     "height": 0,
     "rotation": 0,
     "visible": true,
     "point": true
    },
    {
     "id": 0,
     "name": "cafe-seat-2",
     "type": "",
     "x": 400,
     "y": 240,
     "width": 0,
     "height": 0,
     "rotation": 0,
     "visible": true,
     "point": true
    },
    {
     "id": 0,
     "name": "cafe-seat-3",
     "type": "",
     "x": 384,
     "y": 288,
     "width": 0,
     "height": 0,
     "rotation": 0,
     "visible": true,
     "point": true
    },
    {
     "id": 0,
     "name": "cafe-seat-4",
     "type": "",
     "x": 400,
     "y": 288,
     "width": 0,
     "height": 0,
     "rotation": 0,
     "visible": true,
     "point": true
    },
    {
     "id": 0,
     "name": "cafe-stand-coffee",
     "type": "",
     "x": 464,
     "y": 224,
     "width": 0,
     "height": 0,
     "rotation": 0,
     "visible": true,
     "point": true
    },
    {
     "id": 0,
     "name": "cafe-stand-vending",
     "type": "",
     "x": 496,
     "y": 224,
     "width": 0,
     "height": 0,
     "rotation": 0,
     "visible": true,
     "point": true
    },
    {
     "id": 0,
     "name": "entrance",
     "type": "",
     "x": 256,
     "y": 64,
     "width": 0,
     "height": 0,
     "rotation": 0,
     "visible": true,
     "point": true
    }
   ],
   "opacity": 1,
   "type": "objectgroup",
   "visible": true,
   "x": 0,
   "y": 0
  },
  {
   "draworder": "topdown",
   "id": 7,
   "name": "zones",
   "objects": [
    {
     "id": 0,
     "name": "boardroom",
     "type": "",
     "x": 160,
     "y": 112,
     "width": 112,
     "height": 48,
     "rotation": 0,
     "visible": true
    },
    {
     "id": 0,
     "name": "cafeteria",
     "type": "",
     "x": 352,
     "y": 192,
     "width": 176,
     "height": 144,
     "rotation": 0,
     "visible": true
    }
   ],
   "opacity": 1,
   "type": "objectgroup",
   "visible": true,
   "x": 0,
   "y": 0
  }
 ]
}